src/images_karasa_jaga_svg/cmd/sc_basicshapes.cross.svg

<svg height="16" viewBox="0 0 16 16" width="16" xmlns="http://www.w3.org/2000/svg" xmlns:xlink="http://www.w3.org/1999/xlink"><linearGradient id="a" gradientUnits="userSpaceOnUse" x1="67.661018" x2="68.474579" y1="128" y2="1.084746"><stop offset="0" stop-color="#fff"/><stop offset=".46428573" stop-color="#fff"/><stop offset=".78125" stop-color="#f1f1f1"/><stop offset=".90625" stop-color="#eaeaea"/><stop offset="1" stop-color="#dfdfdf"/></linearGradient><linearGradient id="b" gradientUnits="userSpaceOnUse" x1="8.025391" x2="119.97461" y1="64" y2="64"><stop offset="0" stop-color="#7c9fcf"/><stop offset=".5" stop-color="#7c9ece"/><stop offset="1" stop-color="#7b9dcf"/></linearGradient><g transform="scale(.125)"><path d="m56 8.0253906a7.9757655 7.9757655 0 0 0 -7.974609 7.9746094v32.025391h-32.025391a7.9757655 7.9757655 0 0 0 -7.9746094 7.974609v16a7.9757655 7.9757655 0 0 0 7.9746094 7.974609h32.025391v32.025391a7.9757655 7.9757655 0 0 0 7.974609 7.97461h16a7.9757655 7.9757655 0 0 0 7.974609-7.97461v-32.025391h32.025391a7.9757655 7.9757655 0 0 0 7.97461-7.974609v-16a7.9757655 7.9757655 0 0 0 -7.97461-7.974609h-32.025391v-32.025391a7.9757655 7.9757655 0 0 0 -7.974609-7.9746094z" fill="url(#b)"/><path d="m56 16v40h-40v16h40v40h16v-40h40v-16h-40v-40z" fill="url(#a)"/></g></svg>

<?xml version="1.0" encoding="UTF-8" standalone="no"?>
<svg
   xmlns:dc="http://purl.org/dc/elements/1.1/"
   xmlns:cc="http://creativecommons.org/ns#"
   xmlns:rdf="http://www.w3.org/1999/02/22-rdf-syntax-ns#"
   xmlns:svg="http://www.w3.org/2000/svg"
   xmlns="http://www.w3.org/2000/svg"
   xmlns:xlink="http://www.w3.org/1999/xlink"
   xmlns:sodipodi="http://sodipodi.sourceforge.net/DTD/sodipodi-0.dtd"
   xmlns:inkscape="http://www.inkscape.org/namespaces/inkscape"
   height="128"
   viewBox="0 0 128 128"
   width="128"
   version="1.1"
   id="svg17"
   sodipodi:docname="sc_basicshapes.cross.svg"
   inkscape:version="0.92.3 (unknown)"
   inkscape:export-filename="/home/rizmut/Dokumen/Rizmut/Github/libreoffice-style-karasa-jaga/build/images_karasa_jaga/cmd/sc_basicshapes.cross.png"
   inkscape:export-xdpi="12"
   inkscape:export-ydpi="12">
  <metadata
     id="metadata23">
    <rdf:RDF>
      <cc:Work
         rdf:about="">
        <dc:format>image/svg+xml</dc:format>
        <dc:type
           rdf:resource="http://purl.org/dc/dcmitype/StillImage" />
        <dc:title></dc:title>
      </cc:Work>
    </rdf:RDF>
  </metadata>
  <defs
     id="defs21">
    <linearGradient
       id="linearGradient7422">
      <stop
         style="stop-color:#7c9fcf;stop-opacity:1"
         offset="0"
         id="stop7424" />
      <stop
         id="stop5348"
         offset="0.5"
         style="stop-color:#7c9ece;stop-opacity:1" />
      <stop
         id="stop7426"
         offset="1"
         style="stop-color:#7b9dcf;stop-opacity:1" />
    </linearGradient>
    <linearGradient
       id="linearGradient3369">
      <stop
         id="stop3372"
         offset="0"
         style="stop-color:#ffffff;stop-opacity:1;" />
      <stop
         style="stop-color:#ffffff;stop-opacity:1;"
         offset="0.46428573"
         id="stop3374" />
      <stop
         style="stop-color:#f1f1f1;stop-opacity:1;"
         offset="0.78125"
         id="stop3376" />
      <stop
         id="stop3378"
         offset="0.90625"
         style="stop-color:#eaeaea;stop-opacity:1;" />
      <stop
         id="stop3384"
         offset="1"
         style="stop-color:#dfdfdf;stop-opacity:1;" />
    </linearGradient>
    <linearGradient
       inkscape:collect="always"
       xlink:href="#linearGradient3369"
       id="linearGradient874"
       x1="67.661018"
       y1="128"
       x2="68.474579"
       y2="1.0847458"
       gradientUnits="userSpaceOnUse" />
    <linearGradient
       inkscape:collect="always"
       xlink:href="#linearGradient7422"
       id="linearGradient846"
       x1="8.0253906"
       y1="64"
       x2="119.97461"
       y2="64"
       gradientUnits="userSpaceOnUse" />
  </defs>
  <sodipodi:namedview
     pagecolor="#ffffff"
     bordercolor="#666666"
     borderopacity="1"
     objecttolerance="10"
     gridtolerance="10"
     guidetolerance="10"
     inkscape:pageopacity="0"
     inkscape:pageshadow="2"
     inkscape:window-width="1366"
     inkscape:window-height="706"
     id="namedview19"
     showgrid="true"
     inkscape:snap-global="false"
     inkscape:zoom="5.2149125"
     inkscape:cx="69.79469"
     inkscape:cy="99.300597"
     inkscape:window-x="0"
     inkscape:window-y="0"
     inkscape:window-maximized="1"
     inkscape:current-layer="svg17">
    <inkscape:grid
       type="xygrid"
       id="grid830"
       spacingx="8"
       spacingy="8"
       empspacing="2" />
  </sodipodi:namedview>
  <linearGradient
     id="a"
     gradientUnits="userSpaceOnUse"
     x1="12.43826596873"
     x2="-55.01607626578"
     y1="16.0318989829"
     y2="81.50080110547">
    <stop
       offset="0"
       stop-color="#f9f9fa"
       id="stop2" />
    <stop
       offset="1"
       stop-color="#f9f9fa"
       stop-opacity="0"
       id="stop4" />
  </linearGradient>
  <path
     sodipodi:type="inkscape:offset"
     inkscape:radius="7.974968"
     inkscape:original="M 56 16 L 56 56 L 16 56 L 16 72 L 56 72 L 56 112 L 72 112 L 72 72 L 112 72 L 112 56 L 72 56 L 72 16 L 56 16 z "
     style="fill:url(#linearGradient846);fill-opacity:1.0;stroke:none;stroke-width:4;stroke-linecap:round;stroke-linejoin:bevel;stroke-opacity:0.73039198"
     id="path836"
     d="M 56,8.0253906 A 7.9757655,7.9757655 0 0 0 48.025391,16 V 48.025391 H 16 A 7.9757655,7.9757655 0 0 0 8.0253906,56 V 72 A 7.9757655,7.9757655 0 0 0 16,79.974609 H 48.025391 V 112 A 7.9757655,7.9757655 0 0 0 56,119.97461 H 72 A 7.9757655,7.9757655 0 0 0 79.974609,112 V 79.974609 H 112 A 7.9757655,7.9757655 0 0 0 119.97461,72 V 56 A 7.9757655,7.9757655 0 0 0 112,48.025391 H 79.974609 V 16 A 7.9757655,7.9757655 0 0 0 72,8.0253906 Z" />
  <path
     style="fill:url(#linearGradient874);fill-opacity:1;stroke:none;stroke-width:4;stroke-linecap:round;stroke-linejoin:bevel;stroke-opacity:0.73039198"
     d="M 56 16 L 56 56 L 16 56 L 16 72 L 56 72 L 56 112 L 72 112 L 72 72 L 112 72 L 112 56 L 72 56 L 72 16 L 56 16 z "
     id="path7" />
</svg>
